X: 21221
T: Kay Girroir
R: reel
M: 4/4
K: Bdorian
|:fBBc fBBc|f2ec f2ec|eAAB cAAc|e2fe c2Bb|
fBBc fBBc|f2ec f2ec|ABce f2ec|1 f2ec B2Bb:|2 f2ec B2Bc||
|:Bbb^a bffg|=afge f2ec|Aaag aeef|=gefd e2dc|
Bbb^a bffg|=afge f2ec|ABce f2ec|1 f2ec B2Bc:|2 f2ec B4||

